!!!OTL: Wuzhishanshang yingxiongduo
!!!ARE: Asia, China,ÿGuangdong Zhanxian
!! II, 365, 1)
!!!SCT: C1891
!!!YEM: Copyright 1995, estate of Helmut Schaffrath.
**kern
*ICvox
*Ivox
*M2/4
*k[f#c#]
*D:
{8a
8a
8a
8a
=1
8a
8b
4dd}
=2
{8ee
8ee
16ee
16dd
16b
16dd
=3
8a
16b
16f#
4a}
=4
{8a
8dd
8.b
16a
=5
8f#
16f#
16e
4d}
=6
{8d
8a
4d
=7
8d
8e
4f#}
=8
{8a
16b
16dd
8f#
8a
=9
8b
4dd
8b}
=10
{8a
16b
16dd
16b
16a
8f#
=11
8e
8r
8f#
8r}
=12
{8a
8dd
8e
8f#
=13
2d}
==
!!!AGN: Xiaodiao, Diaosheng
!!!AMT: simple duple
!!!AIN: vox
!!!EED: Helmut Schaffrath
!!!EEV: 1.0
*-
